!!!!SEGMENT: pl-sa--151-a-iv-1--005_anonim--missa-agnus-dei.krn
!!!cenid: 17xx:1572
!!!COM: Anonim
!!!COM-rismID: pe30004985
!!!CDT:
!!!CNT:
!!!OPR: Missa
!!!OTL: Agnus Dei
!!!OMV: 005
!!!PDT:
!!!AGN: Sacred; Mass
!!!SMS-siglum: PL-SA
!!!SMS-shelfmark: 151/A IV 1
!!!SMS-shelfwork: 001-005 M
!!!SMS-variant:
!!!SMS-altvar:
!!!NIFC-rismSourceID: 1001035511
!!!NIFC-rismChildID: 1001035511
!!!NIFC-islandoraID: none
!!!URL-pdf-islandora:
!!!URL-scan: https://bc.bdsandomierz.pl/dlibra/publication/1537/edition/1505/content @EN{Scan in the Sandomierz Diocese Digital Library} @PL{Skany w portalu Cyfrowa Biblioteka Diecezjalna w Sandomierzu}
!!!IIIF:
!!!ONB-nifc: UWAGA: części Mszy: 1. Kyrie, 2. Gloria, 3. Credo, 4. Sanctus, 5. Agnus Dei
!!!AIN: 1 alto 6 empty 1 tenor 2 violn 1 vox
!!!key: D
**kern	**fba	**kern	**kern	**kern	**dynam	**kern	**text	**kern	**text	**kern	**text	**kern	**text	**kern	**kern	**kern
*part11	*part11	*part10	*part9	*part8	*part8	*part7	*part7	*part6	*part6	*part5	*part5	*part4	*part4	*part3	*part2	*part1
*staff11	*	*staff10	*staff9	*staff8	*	*staff7	*staff7	*staff6	*staff6	*staff5	*staff5	*staff4	*staff4	*staff3	*staff2	*staff1
*Iempty	*	*Iempty	*Ivioln	*Ivioln	*	*Iempty	*	*Itenor	*	*Ialto	*	*Ivox	*	*Iempty	*Iempty	*Iempty
*I"[Fundamento Generali]	*	*I"Alto Viola Basso	*I"Violino II	*I"Violino I	*	*I"Baſso.	*	*I"Tenor	*	*I"Alto.	*	*I"Canto	*	*I"[Tympana]	*I"Cl II	*I"Clarino Primo
*I'[Fund.]	*	*I'Vla.	*I'Vn II	*I'Vn I	*	*I'B.	*	*I'T.	*	*I'A.	*	*I'C.	*	*I'[Timp.]	*I'Clar. 2	*I'Clar. 1
*ICklav	*	*ICstr	*ICstr	*ICstr	*	*ICvox	*	*ICvox	*	*ICvox	*	*ICvox	*	*ICidio	*ICbras	*ICbras
*clefF4	*	*clefF4	*clefG2	*clefG2	*	*clefF4	*	*clefC4	*	*clefC3	*	*clefC1	*	*clefF4	*clefG2	*clefG2
*	*	*	*	*	*	*	*	*	*	*	*	*	*	*	*ITrd-1c-2	*ITrd-1c-2
*k[f#c#]	*	*k[f#c#]	*k[f#c#]	*k[f#c#]	*	*k[f#c#]	*	*k[f#c#]	*	*k[f#c#]	*	*k[f#c#]	*	*k[f#c#]	*k[f#c#]	*k[f#c#]
*D:	*	*D:	*D:	*D:	*	*D:	*	*D:	*	*D:	*	*D:	*	*D:	*	*
*M4/4	*	*M4/4	*M4/4	*M4/4	*	*M4/4	*	*M4/4	*	*M4/4	*	*M4/4	*	*M4/4	*M4/4	*M4/4
*met(c)	*	*met(c)	*met(c)	*met(c)	*	*met(c)	*	*met(c)	*	*met(c)	*	*met(c)	*	*met(c)	*met(c)	*met(c)
=1	=1	=1	=1	=1	=1	=1	=1	=1	=1	=1	=1	=1	=1	=1	=1	=1
*	*	*	*	*	*	*	*	*	*	*	*	*	*	*	*2\right	*2\right
!	!	!	!LO:TX:t=P:: global:problem=caudy drobnych wartości nieregularnie&colon; prawa, środek, lewa	!LO:TX:a:i:t=Tutti.	!	!	!	!	!	!	!	!	!	!	!	!LO:TX:a:t=Tutti.
!LO:TX:a:i:t=Tutti	!	!LO:TX:t=P::problem=caudy wszystkich nut po prawej&colon; global	!LO:TX:a:i:t=Tutti.	!LO:TX:t=P:: global:problem=caudy drobnych wartości nieregularnie&colon; prawa, środek, lewa	!	!LO:TX:t=P:: global:problem=caudy drobnych wartości nieregularnie&colon; prawa, środek, lewa	!	!LO:TX:t=P::problem=caudy wszystkich nut po prawej&colon; global	!	!LO:TX:t=P:: global:problem=caudy drobnych wartości nieregularnie&colon; prawa, środek, lewa	!	!	!	!LO:TX:t=P:problem=brak partii kotłów w rękopisie; wymieniona na stronie tytułowej	!LO:TX:a:i:t=Tutti	!
2D/	.	2D/	4.dd\	4ff#\	.	4.D\	A-	4A\	A-	4.f#\	A-	4.dd\	A-	1ryy	2dd\	2ff#\
.	.	.	.	4aa\	.	.	.	4A\	-gnus	.	.	.	.	.	.	.
.	.	.	8ff#\	.	.	8D\	-gnus	.	.	8f#\	-gnus	8dd\	-gnus	.	.	.
2C#/	.	2C#/	4cc#\	4ee\	.	4C#/	De-	4A\	De-	4a\	De-	4ee\	De-	.	2ee\	2aa\
.	.	.	8cc#\L	8aa\L	.	8C#/	-i	8A\	-i	8a\	-i	8ee\	-i	.	.	.
.	.	.	8cc#\J	8aa\J	.	8C#/	qui	8A\	qui	8a\	qui	8ee\	qui	.	.	.
=2	=2	=2	=2	=2	=2	=2	=2	=2	=2	=2	=2	=2	=2	=2	=2	=2
!	!	!	!	!	!	!	!	!	!	!	!	!	!	!	!LO:TX:t=P:: global:problem=caudy drobnych wartości nieregularnie&colon; prawa, środek, lewa	!LO:TX:t=P:: global:problem=caudy drobnych wartości nieregularnie&colon; prawa, środek, lewa
4D/	.	4D/	4dd\	8ff#\L	.	4D/	tol-	4A\	tol-	4a\	tol-	4ff#\	tol-	1ryy	4dd\	4aa\
.	.	.	.	8aa\	.	.	.	.	.	.	.	.	.	.	.	.
4C#/	6	4C#/	8ee\L	8aa\	.	8C#/	-lis	8c#\	-lis	8a\	-lis	8ee\	-lis	.	8ee\L	8aa\L
.	.	.	8cc#\J	8aa\J	.	8C#/	pec-	8A/	pec-	8a\	pec-	8ee\	pec-	.	8ff#\J	8aa\J
2BB/	7	2BB/	4.dd\	4.aa\	.	4.BB/	-ca-	4.B\	-ca-	4.a\	-ca-	4.dd\	-ca-	.	4.ee\	4.aa\
.	6\	.	8dd\	8gg#X\	.	8BB/	-ta	8B\	-ta	8g#X\	-ta	8dd\	-ta	.	8ee\	8gg#X\
=3	=3	=3	=3	=3	=3	=3	=3	=3	=3	=3	=3	=3	=3	=3	=3	=3
4AA/	.	4AA/	4.ee\	4ee\	.	4AA/	mun-	4c#\	mun-	4a\	mun-	4cc#\	mun-	1ryy	4ee\	4aa\
8AA/L	.	8AA/L	.	8aa\L	.	8AA/	-di	8A\	-di	8a\	-di	8cc#\	-di	.	8ee\L	8aa\L
8AA/J	.	8AA/J	16cc#\LL	16ee\L	.	8AA/	pe-	8c#\	pec-	8a\	pec-	8cc#\	pec-	.	8ee\J	8aa\J
.	.	.	16dd\JJ	16ff#\JJ	.	.	.	.	.	.	.	.	.	.	.	.
4BB/	6	4BB/	8b\L	8dd\L	.	4BB/	-ca-	4.B\	-ca-	4g\	-ca-	4dd\	-ca-	.	4.ee\	4.gg\
.	.	.	8ee\	8gg-X\	.	.	.	.	.	.	.	.	.	.	.	.
4C#/	6	4C#/	8ee\	8gg-\	.	4C#/	-ta	.	.	4g\	-ta	4ee\	-ta	.	.	.
.	5	.	8ee\J	8gg-\J	.	.	.	8B\	-ta	.	.	.	.	.	8ee\	8ff#\
=4	=4	=4	=4	=4	=4	=4	=4	=4	=4	=4	=4	=4	=4	=4	=4	=4
*	*	*2\right	*	*	*	*2\right	*	*2\right	*	*2\right	*	*2\right	*	*	*	*
2D/	.	2D\	4.a/	4.ff#\	.	2D\	mun-	2A\	mun-	2f#\	mun-	2dd\	mun-	1ryy	2dd\	2ff#\
.	.	.	8a/	8ff#\	.	.	.	.	.	.	.	.	.	.	.	.
!	!	!	!	!LO:TX:t=P:problem=mixed beam	!	!	!	!	!	!	!	!	!	!	!	!
8D/	.	8D\	4a/	8ff#\L	.	8D/	-di	4A\	-di	8f#\	-di	8dd\	-di	.	8dd\	8ff#\
8r	.	8r	.	8d/	.	8r	.	.	.	8r	.	8d/	pec-	.	8r	8r
4r	.	4r	4r	8f#/	.	4r	.	4r	.	4r	.	8f#/	-ca-	.	4r	4r
.	.	.	.	8a/J	.	.	.	.	.	.	.	8a/	-ta	.	.	.
!	!	!	!	!	!	!	!	!	!	!LO:LB:g=original	!	!	!	!	!	!
=5	=5	=5	=5	=5	=5	=5	=5	=5	=5	=5	=5	=5	=5	=5	=5	=5
!	!	!	!	!LO:TX:t=P:problem=mixed beam	!	!	!	!	!	!	!	!	!	!	!	!
8r	.	8r	8r	16cc-X\LL	.	8r	.	8r	.	8r	.	4cc-X\	mun-	1ryy	8r	8r
.	.	.	.	16d/	.	.	.	.	.	.	.	.	.	.	.	.
!LO:TX:t=P::problem=caudy wszystkich nut po prawej&colon; global	!	!	!	!	!	!	!	!	!	!	!	!	!	!	!	!
8F#\L	-5	8F#\L	8a/L	16cc-\	.	8F#\	pe-	8c-X\	pec-	8a\	pec-	.	.	.	8dd\L	8aa\L
.	.	.	.	16d/JJ	.	.	.	.	.	.	.	.	.	.	.	.
!	!	!	!	!LO:TX:t=P:problem=mixed beam	!	!	!	!	!	!	!	!	!	!	!	!
8F#\	_	8F#\	8a/	16cc-\LL	.	8F#\	-ca-	8c-\	-ca-	8a\	-ca-	8cc-\	-di	.	8dd\	8aa\
.	.	.	.	16d/	.	.	.	.	.	.	.	.	.	.	.	.
8F#\J	.	8F#\J	8a/J	16cc-\	.	8F#\	-ta	8c-\	-ta	8a\	-ta	8cc-\	pec-	.	8dd\J	8aa\J
.	.	.	.	16d/JJ	.	.	.	.	.	.	.	.	.	.	.	.
!	!	!	!LO:TX:t=P:problem=mixed beam	!	!	!	!	!	!	!	!	!	!	!	!	!
8F#\L	.	8F#\L	16cc-X\LL	16aa\LL	.	8F#\	mun-	16c-\	mun-	8a\	mun-	8cc-\	-ca-	.	8dd\L	8aa\L
.	.	.	16d/	16cc-\	.	.	.	16c-\	-di	.	.	.	.	.	.	.
!	!	!	!	!	!	!	!	!LO:LB:g=original	!	!	!	!	!	!	!	!
8F#\	.	8F#\	16cc-\	16aa\	.	16F#\	-di	4c-\	mun-	16a\	-di	8cc-\	-ta	.	8dd\	8aa\
.	.	.	16d/JJ	16cc-\JJ	.	16F#\	pec-	.	.	16a\	pec-	.	.	.	.	.
!	!	!	!LO:TX:t=P:problem=mixed beam	!	!	!	!	!	!	!	!	!	!	!	!	!
8F#\	.	8F#\	16cc-\LL	16aa\LL	.	8F#\	-ca-	.	.	8a\	-ca-	8cc-\	mun-	.	8dd\	8aa\
.	.	.	16d/	16cc-\	.	.	.	.	.	.	.	.	.	.	.	.
8F#\J	.	8F#\J	16cc-\	16aa\	.	8F#\	-ta	8F#/	-di	8a\	-ta	8cc-\	-di	.	8dd\J	8aa\J
.	x	.	16d/JJ	16cc-\JJ	.	.	.	.	.	.	.	.	.	.	.	.
!	!	!	!	!	!	!LO:LB:g=original	!	!	!	!	!	!LO:LB:g=original	!	!	!	!
=6	=6	=6	=6	=6	=6	=6	=6	=6	=6	=6	=6	=6	=6	=6	=6	=6
4G\	.	8G\L	8g/	8b/L	.	8G\	mun-	8G/	.	8d\	mun-	8r	.	1ryy	8dd\L	8dd\L
.	.	8G\J	8r	8e/	.	8G\	-di	8G/	.	8d\	-di	8e/	Pec-	.	8dd\J	8dd\J
4r	.	8r	4r	8g#X/	.	4r	.	4r	.	4r	.	8g#X\	-ca-	.	4r	4r
.	.	4r	.	8b/J	.	.	.	.	.	.	.	8b\	-ta	.	.	.
!	!	!	!	!LO:TX:t=P:problem=mixed beam	!	!	!	!	!	!	!	!	!	!	!	!
8r	.	.	8r	16dd\LL	.	8r	.	8r	.	8r	.	4dd\	mun-	.	8r	8r
.	.	.	.	16e/	.	.	.	.	.	.	.	.	.	.	.	.
8G#X\L	5	8G#X\L	8b\L	16dd\	.	8G#X\	pec-	8d\	pec-	8b\	pec-	.	.	.	8ee\L	8bb\L
.	.	.	.	16e/JJ	.	.	.	.	.	.	.	.	.	.	.	.
!	!	!	!	!LO:TX:t=P:problem=mixed beam	!	!	!	!	!	!	!	!	!	!	!	!
8G#\	_	8G#\	8b\	16dd\LL	.	8G#\	-ca-	8d\	-ca-	8b\	-ca-	8dd\	-di	.	8ee\	8bb\
.	.	.	.	16e/	.	.	.	.	.	.	.	.	.	.	.	.
8G#\J	.	8G#\J	8b\J	16dd\	.	8G#\	-ta	8d\	-ta	8b\	-ta	8dd\	pec-	.	8ee\J	8bb\J
.	x	.	.	16e/JJ	.	.	.	.	.	.	.	.	.	.	.	.
=7	=7	=7	=7	=7	=7	=7	=7	=7	=7	=7	=7	=7	=7	=7	=7	=7
!	!	!	!LO:TX:t=P:problem=mixed beam	!	!	!	!	!	!	!	!	!	!	!	!	!
8G\L	.	8G#X\L	16dd\LL	16bb\LL	.	8G\	mun-	8d\	mun-	8b\	mun-	8dd\	-ca-	1ryy	8ee\L	8bb\L
.	.	.	16e/	16dd\	.	.	.	.	.	.	.	.	.	.	.	.
8G\	.	8G#\	16dd\	16bb\	.	16G\	-di	8d\	-di	16b\	-di	8dd\	-ta	.	8ee\	8bb\
.	.	.	16e/JJ	16dd\JJ	.	16G\	pec-	.	.	16b\	pec-	.	.	.	.	.
!	!	!	!LO:TX:t=P:problem=mixed beam	!	!	!	!	!	!	!	!	!	!	!	!	!
8G\	.	8G#\	16dd\LL	16bb\LL	.	8G\	-ca-	8d\	pec-	8b\	-ca-	8dd\	mun-	.	8ee\	8bb\
.	.	.	16e/	16dd\	.	.	.	.	.	.	.	.	.	.	.	.
8G\J	.	8G#\J	16dd\	16bb\	.	8G\	-ta	4A\	-ca-	8b\	-ta	8dd\	-di	.	8ee\J	8bb\J
.	.	.	16e/JJ	16dd\JJ	.	.	.	.	.	.	.	.	.	.	.	.
8A\L	.	8A\L	8a/	8cc#\L	.	8A\	mun-	.	.	8e\	mun-	8r	.	.	8ee\L	8ee\L
*	*	*	*	*	*	*	*	*	*	*	*	*	*ij	*	*	*
8A\J	.	8A\J	8r	8a\J	.	8A\	-di	4A\	-ta	8e\	-di	8a\	pec-	.	8ee\J	8ee\J
!	!	!	!	!LO:LB:g=original	!	!	!	!	!	!	!	!	!	!	!	!
4r	.	4r	4r	8cc#\L	.	4r	.	.	.	4r	.	8cc#\	-ca-	.	4r	4r
.	.	.	.	8ee\J	.	.	.	8r	.	.	.	8ee\	-ta	.	.	.
!	!	!LO:LB:g=original	!LO:LB:g=original	!	!	!	!	!	!	!	!	!	!	!	!	!
=8	=8	=8	=8	=8	=8	=8	=8	=8	=8	=8	=8	=8	=8	=8	=8	=8
!	!	!	!	!LO:TX:t=P:problem=mixed beam	!	!	!	!	!	!	!	!	!	!	!	!
8r	.	8r	8r	16gg\LL	.	8r	.	8r	.	8r	.	8gg\	mun-	1ryy	8r	8r
.	.	.	.	16a/	.	.	.	.	.	.	.	.	.	.	.	.
8C#/L	-5	8C#/L	8ee\L	16gg\	.	8C#/	pec-	8e\	pecca-	8e\	pec-	8gg\	-di	.	8ee\L	8gg\L
.	_	.	.	16a/JJ	.	.	.	.	.	.	.	.	.	.	.	.
!LO:LB:g=original	!	!	!	!LO:TX:t=P:problem=mixed beam	!	!	!	!	!	!	!	!	!	!	!	!
8C#/	x	8C#/	8ee\	16gg\LL	.	8C#/	-ca-	8e\	-ta	8e\	-ca-	8gg\	pec-	.	8ee\	8gg\
.	.	.	.	16a/	.	.	.	.	.	.	.	.	.	.	.	.
8C#/J	.	8C#/J	8ee\J	16gg\	.	8C#/	-ta	8e\	mun-	8e\	-ta	4.gg\	-ca-	.	8ee\J	8gg\J
.	.	.	.	16a/JJ	.	.	.	.	.	.	.	.	.	.	.	.
!	!	!	!	!LO:TX:t=P:problem=mixed beam	!	!	!	!LO:N:vis=16	!	!	!	!	!	!	!	!
8C#/L	.	8C#/L	8ee\L	16gg\LL	.	8C#/	mun-	8e\	-di	8e\	mu-	.	.	.	8ee\L	8gg\L
.	.	.	.	16a/	.	.	.	.	.	.	.	.	.	.	.	.
8C#/	.	8C#/	8ee\	16gg\	.	16C#/	-di	16e\	mi-	16e\	-di	.	.	.	8ee\	8gg\
.	.	.	.	16a/JJ	.	16C#/	pec-	16e\	-se-	16e\	pec-	.	.	.	.	.
!	!	!	!	!	!	!	!	!	!	!LO:LB:g=original	!	!	!	!	!	!
!	!	!	!	!LO:TX:t=P:problem=mixed beam	!	!	!	!	!	!	!	!	!	!	!	!
8C#/	.	8C#/	8ee\	16gg\LL	.	8C#/	-ca-	8e\	-re-	8e\	-ca-	8gg\	-ta	.	8ee\	8gg\
*	*	*	*	*	*	*	*	*	*	*	*	*	*Xij	*	*	*
.	.	.	.	16a/	.	.	.	.	.	.	.	.	.	.	.	.
!	!	!	!	!	!	!	!	!	!	!	!	!LO:TX:t=P:problem=takt niepełny	!	!	!	!
8C#/J	.	8C#/J	8ee\J	16gg\	.	8C#/	-ta	8e\	-re	8e\	-ta	8ryy	.	.	8ee\J	8gg\J
.	.	.	.	16a/JJ	.	.	.	.	.	.	.	.	.	.	.	.
!	!	!	!	!	!	!	!	!	!	!	!	!	!	!	!LO:LB:g=original	!
=9	=9	=9	=9	=9	=9	=9	=9	=9	=9	=9	=9	=9	=9	=9	=9	=9
4D\	.	4D\	4dd\	4ff#\	.	4D\	mun-	4A\	nobis	4f#\	mun-	8ff#\	mun-	1ryy	4dd\	4ff#\
.	.	.	.	.	.	.	.	.	.	.	.	8ff#\	-di	.	.	.
!	!	!	!	!	!	!	!	!LO:LB:g=original	!	!	!	!	!	!	!	!
4F#\	6	4F#\	8dd\L	8dd\L	.	8F#\	-di	8A\	pec-	8a\	-di	4dd\	mi-	.	4dd\	4ff#\
.	.	.	8dd\J	8aa\J	.	8F#\	pec-	8A\	-ca-	8a\	pec-	.	.	.	.	.
4G\	.	4G\	4b\	8dd\L	.	4G\	-ca-	4G/	-ta	4b\	-ca-	4dd\	-se-	.	4dd\	4ff#\
.	.	.	.	8ff#\	.	.	.	.	.	.	.	.	.	.	.	.
4F#\	.	4F#\	4dd\	8ff#\	.	4F#\	-ta	8A/	mundi	4a\	-ta	4dd\	-re-	.	8dd\L	8ff#\L
.	.	.	.	8aa\J	.	.	.	8r	.	.	.	.	.	.	8ff#\J	8aa\J
!	!	!	!	!	!	!	!	!	!	!	!	!	!	!	!	!LO:LB:g=original
=10	=10	=10	=10	=10	=10	=10	=10	=10	=10	=10	=10	=10	=10	=10	=10	=10
*2\right	*	*	*	*	*	*	*	*	*	*	*	*	*	*	*	*
2E\	7	2E\	4dd\	8cc#\L	.	2E\	mun-	4B\	mun-	2g\	mun-	4dd\	-re	1ryy	2ee\	2gg\
.	.	.	.	8ee\	.	.	.	.	.	.	.	.	.	.	.	.
.	6	.	4cc#\	8ee\	.	.	.	4c#\	.	.	.	4cc#\	no-	.	.	.
.	.	.	.	8gg\J	.	.	.	.	.	.	.	.	.	.	.	.
!	!	!	!LO:TX:t=P:problem=mixed beam	!LO:TX:t=P:problem=mixed beam	!	!	!	!	!	!	!	!	!	!	!	!
2D\	.	2D\	8dd\L	8ff#\L	.	2D\	-di	2d\	-di	2f#\	-di	2dd\	-bis	.	2dd\	2ff#\
.	.	.	8d/J	8f#/J	.	.	.	.	.	.	.	.	.	.	.	.
.	.	.	4d/	4f#/	.	.	.	.	.	.	.	.	.	.	.	.
!	!	!	!	!	!	!LO:LB:g=original	!	!	!	!	!	!	!	!	!	!
=11	=11	=11	=11	=11	=11	=11	=11	=11	=11	=11	=11	=11	=11	=11	=11	=11
*	*	*	*	*	*	*	*	*	*	*	*	*	*ij	*	*	*
!	!	!	!	!LO:TX:a:t=Adagio.	!	!LO:TX:a:t=Adagio	!	!	!	!	!	!	!	!	!LO:TX:a:t=Adagio	!
1r	.	1r	8d/L	8d/L	.	1r	.	1r	.	4.f#\	mi-	4.dd\	mi-	1ryy	1r	1r
.	.	.	8e/	8e/	.	.	.	.	.	.	.	.	.	.	.	.
.	.	.	8f#/	8f#/	.	.	.	.	.	.	.	.	.	.	.	.
.	.	.	8g/J	8g/J	.	.	.	.	.	8f#\	-se-	8dd\	-se-	.	.	.
!	!	!	!	!	!	!	!	!	!	!	!	!LO:LB:g=original	!	!	!	!
.	.	.	8a/L	8a/L	.	.	.	.	.	4e\	-re-	4cc#\	-re-	.	.	.
.	.	.	8A/J	8A/J	.	.	.	.	.	.	.	.	.	.	.	.
.	.	.	4A/	4A/	.	.	.	.	.	4e\	-re	4cc#\	-re	.	.	.
=12	=12	=12	=12	=12	=12	=12	=12	=12	=12	=12	=12	=12	=12	=12	=12	=12
!	!	!	!	!	!	!	!	!	!	!	!	!	!	!	!	!LO:TX:a:t=Adagio
8D\L	.	8D\L	8dd\L	8ff#\L	.	8D\L	miſ-	8A/L	mi-	4.f#\	mi-	4.dd\	mi-	1ryy	4.dd\	4.ff#\
8E\	.	8E\	8cc#\J	8ee\J	.	8E\J	.	8G/J	.	.	.	.	.	.	.	.
8F#\	.	8F#\	8dd\L	8dd\L	.	8F#\L	-se-	8A/L	-se-	.	.	.	.	.	.	.
8G\J	.	8G\J	16ee\L	16gg\L	.	8G\J	.	8B/J	.	8f#\	-se-	8dd\	-se-	.	8dd\	8ff#\
.	.	.	16dd\JJ	16ff#\JJ	.	.	.	.	.	.	.	.	.	.	.	.
!LO:TX:t=P:problem=mixed beam	!	!LO:TX:t=P:problem=mixed beam	!LO:TX:t=P:problem=mixed beam	!LO:TX:t=P:problem=mixed beam	!	!	!	!	!	!	!	!	!	!	!	!
8A\L	.	8A\L	8cc#\L	8ee\L	.	4A\	-re-	4A/	-re-	4e\	-re-	4cc#\	-re-	.	4a/	4ee\
8AA/	.	8AA/	8A/J	8A/J	.	.	.	.	.	.	.	.	.	.	.	.
8C#/	.	8C#/	4A/	4A/	.	4A\	-re	4A/	-re	4e\	-re	4cc#\	-re	.	4a/	4ee\
8AA/J	.	8AA/J	.	.	.	.	.	.	.	.	.	.	.	.	.	.
=13	=13	=13	=13	=13	=13	=13	=13	=13	=13	=13	=13	=13	=13	=13	=13	=13
*	*	*	*	*	*	*	*	*	*	*	*ij	*	*	*	*	*
1r	.	1r	8B/L	8B/L	.	1r	.	1r	.	4.b\	mi-	4.dd\	mi-	1ryy	1r	1r
.	.	.	8c#/	8c#/	.	.	.	.	.	.	.	.	.	.	.	.
.	.	.	8d/	8d/	.	.	.	.	.	.	.	.	.	.	.	.
.	.	.	8e/J	8e/J	.	.	.	.	.	8b\	-se-	8dd\	-se-	.	.	.
.	.	.	8f#/L	8f#/L	.	.	.	.	.	4a#X\	-re-	4cc#\	-re-	.	.	.
.	.	.	8g#X/	8g#X/	.	.	.	.	.	.	.	.	.	.	.	.
.	.	.	8a#X/	8a#X/	.	.	.	.	.	4a#\	-re	4cc#\	-re	.	.	.
.	.	.	8f#/J	8f#/J	.	.	.	.	.	.	.	.	.	.	.	.
=14	=14	=14	=14	=14	=14	=14	=14	=14	=14	=14	=14	=14	=14	=14	=14	=14
8BB/L	.	8BB/L	8dd\L	8ff#\L	.	8BB/L	mi-	8B\L	mi-	4.f#\	mi-	4.b\	mi-	1ryy	8f#/L	8f#/L
8C#/	.	8C#/	8cc#\	8ee\	.	8C#/J	.	8A#X\J	.	.	.	.	.	.	8f#/	8f#/
8D/	.	8D/	8b\	8dd\	.	8D/L	-se-	8B\L	-se-	.	.	.	.	.	8f#/	8f#/
8E/J	.	8E/J	8ee\J	8gg\J	.	8E/J	.	8c#\J	.	8f#\	-se-	8b\	-se-	.	8f#/J	8f#/J
!	!	!	!LO:TX:t=P:problem=mixed beam	!LO:TX:t=P:problem=mixed beam	!	!	!	!	!	!	!	!	!	!	!	!
4F#\	2	4F#\	8ff#\L	8ff#\L	.	4F#\	-re-	4A#\	-re-	4f#\	-re-	4a#X\	-re-	.	8f#/L	8f#/L
.	.	.	8f#/J	8f#/J	.	.	.	.	.	.	.	.	.	.	8f#/J	8f#/J
4F#\	.	4F#\	4f#/	4f#/	.	4F#\	-re	4A#\	-re	4f#\	-re	4a#\	-re	.	4f#/	4f#/
*	*	*	*	*	*	*	*	*	*	*	*	*	*Xij	*	*	*
!	!	!	!	!LO:LB:g=original	!	!	!	!	!	!	!	!	!	!	!	!
=15	=15	=15	=15	=15	=15	=15	=15	=15	=15	=15	=15	=15	=15	=15	=15	=15
1r	.	1r	8d/L	8d/L	.	1r	.	1r	.	4a\	mi-	4.ff#\	mi-	1ryy	1r	1r
.	.	.	8e/	8e/	.	.	.	.	.	.	.	.	.	.	.	.
.	.	.	8f#/	8f#/	.	.	.	.	.	8g\L	-se-	.	.	.	.	.
.	.	.	8g/J	8g/J	.	.	.	.	.	8f#\J	.	16ee\LL	-se-	.	.	.
.	.	.	.	.	.	.	.	.	.	.	.	16dd\JJ	.	.	.	.
!	!	!	!	!	!	!	!	!	!	!LO:LB:g=original	!	!	!	!	!	!
.	.	.	8a/L	8a/L	.	.	.	.	.	4e\	-re-	4cc#\	-re-	.	.	.
.	.	.	8A/J	8A/J	.	.	.	.	.	.	.	.	.	.	.	.
.	.	.	4A/	4A/	.	.	.	.	.	4e\	-re	4cc#\	-re	.	.	.
*	*	*	*	*	*	*	*	*	*	*	*Xij	*	*	*	*	*
!	!	!	!LO:LB:g=original	!	!	!	!	!	!	!	!	!	!	!	!	!
=16	=16	=16	=16	=16	=16	=16	=16	=16	=16	=16	=16	=16	=16	=16	=16	=16
8D\L	.	8D\L	8dd\L	8ff#\L	.	8D\L	mi-	8An/L	mi-	8f#\L	mi-	4dd\	no-	1ryy	4.dd\	4.ff#\
8E\	.	8E\	8cc#\J	8ee\J	.	8E\J	.	8G/J	.	8g\J	.	.	.	.	.	.
!	!	!	!	!	!	!	!	!LO:LB:g=original	!	!	!	!	!	!	!	!
8F#\	.	8F#\	16dd\LL	16ff#\LL	.	8F#\L	-ſe-	8A/L	-se-	8a\L	-se-	4dd\	-bis	.	.	.
.	.	.	16ff#\	16aa\	.	.	.	.	.	.	.	.	.	.	.	.
8G\J	.	8G\J	16ee\	16gg\	.	8G\J	.	8B/J	.	8b\J	.	.	.	.	8dd\	8ff#\
.	.	.	16dd\JJ	16ff#\JJ	.	.	.	.	.	.	.	.	.	.	.	.
!	!	!	!LO:TX:t=P:problem=mixed beam	!LO:TX:t=P:problem=mixed beam	!	!	!	!	!	!	!	!	!	!	!	!
8A\L	.	8A\L	8ee\L	8ee\L	.	8A\L	-re-	4A/	-re-	4e\	-re-	4dd\	mi-	.	4a/	4ee\
8G\	.	8G\	8c#\J	8A/J	.	8G\J	.	.	.	.	.	.	.	.	.	.
8F#\	.	8F#\	4c#/	4A/	.	8F#\L	-re	4B/	-re	4f#\	-re	8dd\L	-se-	.	4a/	4ee\
8G\J	.	8G\J	.	.	.	8G\J	.	.	.	.	.	8ee\J	.	.	.	.
!	!	!LO:LB:g=original	!	!	!	!	!	!	!	!	!	!	!	!	!	!
=17	=17	=17	=17	=17	=17	=17	=17	=17	=17	=17	=17	=17	=17	=17	=17	=17
*	*	*	*	*2\right	*	*	*	*	*	*	*	*	*	*	*	*
!	!	!	!LO:N:vis=1	!	!	!	!	!	!	!	!	!	!	!	!	!
2A\	.	2A\	2dd\	2ff#\	.	2A\	no-	1A\	no-	1e\	no-	2ff#\	-re-	1ryy	2dd\	2ff#\
!	!	!	!LO:N:vis=1	!	!	!	!	!	!	!	!	!	!	!	!	!
2AA/	.	2AA/	2cc#\	2ee\	.	2AA/	.	.	.	.	.	2ee\	-re	.	2a/	2ee\
=18	=18	=18	=18	=18	=18	=18	=18	=18	=18	=18	=18	=18	=18	=18	=18	=18
1D\	.	1D\	1dd\	1ff#\	.	1D\	-bis	1A\	-bis	1f#\	-bis	2dd\	nobis	1ryy	2f#/	1dd\
!	!	!	!	!	!	!	!	!	!	!	!	!LO:TX:t=P:problem=pojedyncza kreska taktowa	!	!	!	!
.	.	.	.	.	.	.	.	.	.	.	.	2r	.	.	2f#/	.
!LO:LB:g=original	!	!	!	!	!	!	!	!	!	!	!	!	!	!	!	!
=19||	=19||	=19||	=19||	=19||	=19||	=19||	=19||	=19||	=19||	=19||	=19||	=19	=19	=19||	=19||	=19||
*	*	*	*M4/4	*M4/4	*	*M4/4	*	*	*	*M4/4	*	*	*	*	*	*M4/4
*	*	*	*met(c)	*met(c)	*	*met(c)	*	*	*	*met(c)	*	*	*	*	*	*met(c)
!LO:TX:b:t=Agnus	!	!LO:TX:b:t=Agnus	!	!	!	!	!	!	!	!	!	!	!	!	!	!
!LO:TX:t=P:problem=mixed beam	!	!LO:TX:t=P:problem=mixed beam	!	!LO:TX:a:i:t=Solo.	!	!	!	!	!	!	!	!	!	!	!	!
8BB/L	.	8BB/L	4d/	4b\	.	00r	.	0r	.	0r	.	00r	.	1ryy	00r	00r
!LO:TX:a:i:t=Solo	!	!LO:TX:a:i:t=Solo	!	!	!	!	!	!	!	!	!	!	!	!	!	!
8B\	.	8B\	.	.	.	.	.	.	.	.	.	.	.	.	.	.
!	!	!	!LO:TX:a:i:t=Solo	!	!	!	!	!	!	!	!	!	!	!	!	!
8A#X\	.	8A#X\	4f#/	4cc#\	.	.	.	.	.	.	.	.	.	.	.	.
8F#\J	.	8F#\J	.	.	.	.	.	.	.	.	.	.	.	.	.	.
!LO:TX:t=P:problem=mixed beam	!	!LO:TX:t=P:problem=mixed beam	!	!	!	!	!	!	!	!	!	!	!	!	!	!
8B\L	.	8B\L	8b\L	8dd\L	.	.	.	.	.	.	.	.	.	.	.	.
8BB/J	.	8BB/J	8r	16cc#\L	.	.	.	.	.	.	.	.	.	.	.	.
.	.	.	.	16dd\JJ	.	.	.	.	.	.	.	.	.	.	.	.
8r	.	8r	8dd\J	16b\LL	.	.	.	.	.	.	.	.	.	.	.	.
.	.	.	.	16dd\	.	.	.	.	.	.	.	.	.	.	.	.
8B\	.	8B\	8r	16cc#\	.	.	.	.	.	.	.	.	.	.	.	.
.	.	.	.	16b\JJ	.	.	.	.	.	.	.	.	.	.	.	.
=20	=20	=20	=20	=20	=20	=20	=20	=20	=20	=20	=20	=20	=20	=20	=20	=20
!	!	!	!	!LO:TX:t=P:problem=mixed beam	!	!	!	!	!	!	!	!	!	!	!	!
8A#X\L	.	8A#X\L	8a#X/L	8cc#\L	.	.	.	.	.	.	.	.	.	1ryy	.	.
8G#X\	.	8G#X\	8a#/	8f#/	.	.	.	.	.	.	.	.	.	.	.	.
8A#\	.	8A#\	8a#/	8ff#\	.	.	.	.	.	.	.	.	.	.	.	.
8F#\J	.	8F#\J	8a#/J	8ee\J	.	.	.	.	.	.	.	.	.	.	.	.
!LO:TX:t=P:problem=mixed beam	!	!LO:TX:t=P:problem=mixed beam	!	!	!	!	!	!	!	!	!	!	!	!	!	!
8B\L	.	8B\L	8b\	8dd\L	.	.	.	.	.	.	.	.	.	.	.	.
8BB/J	.	8BB/J	8r	16cc#\L	.	.	.	.	.	.	.	.	.	.	.	.
.	.	.	.	16dd\JJ	.	.	.	.	.	.	.	.	.	.	.	.
8r	.	8r	8dd\	16b\LL	.	.	.	.	.	.	.	.	.	.	.	.
.	.	.	.	16dd\	.	.	.	.	.	.	.	.	.	.	.	.
8B\	.	8B\	8r	16cc#\	.	.	.	.	.	.	.	.	.	.	.	.
.	.	.	.	16b\JJ	.	.	.	.	.	.	.	.	.	.	.	.
=21	=21	=21	=21	=21	=21	=21	=21	=21	=21	=21	=21	=21	=21	=21	=21	=21
!	!	!	!	!LO:TX:t=P:problem=mixed beam	!	!	!	!	!	!	!	!	!	!	!	!
8A#X\L	.	8A#X\L	8a#X/L	8cc#\L	.	.	.	1r	.	1r	.	.	.	1ryy	.	.
8F#\	.	8F#\	8a#/	8f#/J	.	.	.	.	.	.	.	.	.	.	.	.
8B\	.	8B\	8a#/	8ff#\L	.	.	.	.	.	.	.	.	.	.	.	.
8A#\J	.	8A#\J	8a#/J	16ee\L	.	.	.	.	.	.	.	.	.	.	.	.
.	.	.	.	16ff#\JJ	.	.	.	.	.	.	.	.	.	.	.	.
!LO:TX:t=P:problem=mixed beam	!	!LO:TX:t=P:problem=mixed beam	!	!	!	!	!	!	!	!	!	!	!	!	!	!
8G\L	.	8G\L	8b/	16b\LL	.	.	.	.	.	.	.	.	.	.	.	.
.	.	.	.	16ee\	.	.	.	.	.	.	.	.	.	.	.	.
8E\	.	8E\	8r	16dd\	.	.	.	.	.	.	.	.	.	.	.	.
.	.	.	.	16cc#\JJ	.	.	.	.	.	.	.	.	.	.	.	.
8F#\	.	8F#\	8.g/L	8dd\L	.	.	.	.	.	.	.	.	.	.	.	.
8FF#/J	.	8FF#/J	.	16cc#\L	.	.	.	.	.	.	.	.	.	.	.	.
.	.	.	16f#/Jk	16b\JJ	.	.	.	.	.	.	.	.	.	.	.	.
=22	=22	=22	=22	=22	=22	=22	=22	=22	=22	=22	=22	=22	=22	=22	=22	=22
!	!	!	!	!	!	!	!	!LO:TX:a:i:t=Solo.	!	!	!	!	!	!	!	!
8BB/L	.	8BB/L	4f#/	4b/	.	.	.	4.d\	A-	4.f#\	A-	.	.	1ryy	.	.
8C#/	.	8C#/	.	.	.	.	.	.	.	.	.	.	.	.	.	.
8D/	.	8D/	4r	4r	.	.	.	.	.	.	.	.	.	.	.	.
8BB/J	.	8BB/J	.	.	.	.	.	16c#\LL	-gnus	16e\LL	-gnus	.	.	.	.	.
.	.	.	.	.	.	.	.	16B\JJ	.	16d\JJ	.	.	.	.	.	.
!	!	!LO:LB:g=original	!	!	!	!	!	!	!	!	!	!	!	!	!	!
8AA#X/L	6	8AA#X/L	2r	2r	.	.	.	4c#\	De-	4e\	De-	.	.	.	.	.
8GG#X/	.	8GG/	.	.	.	.	.	.	.	.	.	.	.	.	.	.
8AA#/	6	8AA#/	.	.	.	.	.	8c#\	-i	8e\	-i	.	.	.	.	.
!	!	!	!	!	!	!	!	!LO:TX:t=P:problem=poprawki w tekście	!	!	!	!	!	!	!	!
8FF#/J	.	8FF#/J	.	.	.	.	.	16d\LL	qui	(16f#\LL	qui	.	.	.	.	.
.	.	.	.	.	.	.	.	16c#\JJ	.	16e\JJ)	.	.	.	.	.	.
!	!	!	!	!LO:LB:g=original	!	!	!	!	!	!	!	!	!	!	!	!
=23	=23	=23	=23	=23	=23	=23	=23	=23	=23	=23	=23	=23	=23	=23	=23	=23
4BB/	.	4BB/	00r	00r	.	00r	.	8B\	tol-	8d\	tol-	00r	.	1ryy	00r	00r
.	.	.	.	.	.	.	.	16B\	-lis	16B/	-lis	.	.	.	.	.
.	.	.	.	.	.	.	.	16B\	pec-	16c#/	pec-	.	.	.	.	.
4r	.	4r	.	.	.	.	.	8B\	-ca-	8d\	-ca-	.	.	.	.	.
.	.	.	.	.	.	.	.	8B\	-ta	8d\	-ta	.	.	.	.	.
8r	.	8r	.	.	.	.	.	4c#\	mun-	4e\	mun-	.	.	.	.	.
8AAn/L	.	8AAn/L	.	.	.	.	.	.	.	.	.	.	.	.	.	.
8C#/	.	8C#/	.	.	.	.	.	4c#\	-di	4e\	-di	.	.	.	.	.
8AA/J	.	8AA/J	.	.	.	.	.	.	.	.	.	.	.	.	.	.
=24	=24	=24	=24	=24	=24	=24	=24	=24	=24	=24	=24	=24	=24	=24	=24	=24
8r	.	8r	.	.	.	.	.	4.d\	mi-	4.f#\	mi-	.	.	1ryy	.	.
8D\L	.	8D\L	.	.	.	.	.	.	.	.	.	.	.	.	.	.
8F#\	.	8F#\	.	.	.	.	.	.	.	.	.	.	.	.	.	.
8D\J	.	8D\J	.	.	.	.	.	8d\	-se-	8f#\	-se-	.	.	.	.	.
!LO:LB:g=original	!	!	!	!	!	!	!	!	!	!	!	!	!	!	!	!
8r	.	8r	.	.	.	.	.	4c#\	-re-	4e\	-re-	.	.	.	.	.
8A\L	.	8A\L	.	.	.	.	.	.	.	.	.	.	.	.	.	.
!	!	!	!	!	!	!	!	!LO:TX:t=P:plama:problem	!	!	!	!	!	!	!	!
8F#\	.	8F#\	.	.	.	.	.	4ryy	-re	4f#\	-re	.	.	.	.	.
8D\J	.	8D\J	.	.	.	.	.	.	.	.	.	.	.	.	.	.
!	!	!	!	!	!	!	!	!LO:PB:g=original	!	!LO:LB:g=original	!	!	!	!	!	!
=25	=25	=25	=25	=25	=25	=25	=25	=25	=25	=25	=25	=25	=25	=25	=25	=25
!	!	!	!	!	!	!	!	!LO:TX:t=P:problem=poprawki w tekście w tym i nast takcie	!	!	!	!	!	!	!	!
8r	.	8r	.	.	.	.	.	4.e\	mi-	4.g\	no-	.	.	1ryy	.	.
8E\L	.	8E\L	.	.	.	.	.	.	.	.	.	.	.	.	.	.
8C#\	.	8C#\	.	.	.	.	.	.	.	.	.	.	.	.	.	.
8AA\J	.	8AA\J	.	.	.	.	.	16d\LL	-se-	16f#\LL	.	.	.	.	.	.
.	.	.	.	.	.	.	.	16c#\JJ	.	16e\JJ	.	.	.	.	.	.
8r	.	8r	.	.	.	.	.	4d\	-re-	4f#\	-bis	.	.	.	.	.
8D/L	.	8D/L	.	.	.	.	.	.	.	.	.	.	.	.	.	.
8BB/	.	8BB/	.	.	.	.	.	8d\	-re	8f#\	mi-	.	.	.	.	.
8D/J	.	8D/J	.	.	.	.	.	8d\	no-	8f#\	-se-	.	.	.	.	.
=26	=26	=26	=26	=26	=26	=26	=26	=26	=26	=26	=26	=26	=26	=26	=26	=26
8r	.	8r	.	.	.	.	.	4d\	.	4e\	-re-	.	.	1ryy	.	.
8AA#X/L	.	8AA#X/L	.	.	.	.	.	.	.	.	.	.	.	.	.	.
8BB/	.	8BB/	.	.	.	.	.	4B\	-bis	8d\L	-re	.	.	.	.	.
8BB/J	.	8BB/J	.	.	.	.	.	.	.	8c#\J	.	.	.	.	.	.
8r	.	8r	.	.	.	.	.	4B\	no-	4d\	no-	.	.	.	.	.
8E\L	.	8E\L	.	.	.	.	.	.	.	.	.	.	.	.	.	.
8D\	.	8D\	.	.	.	.	.	4A#X\	-bis	8c#/L	.	.	.	.	.	.
8BB\J	.	8BB\J	.	.	.	.	.	.	.	8B/J	.	.	.	.	.	.
=27	=27	=27	=27	=27	=27	=27	=27	=27	=27	=27	=27	=27	=27	=27	=27	=27
4BB/	.	4BB/	8r	8r	.	0r	.	4B\	.	4B/	-bis	0r	.	1ryy	0r	0r
!	!	!	!LO:TX:t=P:problem=mixed beam	!LO:TX:t=P:problem=mixed beam	!	!	!	!	!	!	!	!	!	!	!	!
.	.	.	8dd\L	8ff#\L	.	.	.	.	.	.	.	.	.	.	.	.
8r	.	8r	8f#/	8f#/	.	.	.	4r	.	4r	.	.	.	.	.	.
8BB/	.	8BB/	8dd\J	8ff#\J	.	.	.	.	.	.	.	.	.	.	.	.
4C#/	6\	4C#/	8r	8r	.	.	.	2r	.	2r	.	.	.	.	.	.
!	!	!	!LO:TX:t=P:problem=mixed beam	!LO:TX:t=P:problem=mixed beam	!	!	!	!	!	!	!	!	!	!	!	!
.	.	.	8cc#\L	8ee\L	.	.	.	.	.	.	.	.	.	.	.	.
!	!	!LO:LB:g=original	!	!	!	!	!	!	!	!	!	!	!	!	!	!
8r	.	8r	8f#/	8f#/	.	.	.	.	.	.	.	.	.	.	.	.
8AA#X/	6	8AA#X/	8cc#\J	8ee\J	.	.	.	.	.	.	.	.	.	.	.	.
.	5	.	.	.	.	.	.	.	.	.	.	.	.	.	.	.
=28	=28	=28	=28	=28	=28	=28	=28	=28	=28	=28	=28	=28	=28	=28	=28	=28
!	!	!	!	!	!	!	!	!LO:TX:a:t=2	!	!	!	!	!	!	!	!
4BB/	.	4BB/	8r	8r	.	.	.	0r	.	0r	.	.	.	1ryy	.	.
!	!	!	!	!LO:TX:t=P:problem=mixed beam	!	!	!	!	!	!	!	!	!	!	!	!
.	.	.	8b/L	8dd\L	.	.	.	.	.	.	.	.	.	.	.	.
8r	.	8r	8f#/	8f#/	.	.	.	.	.	.	.	.	.	.	.	.
8BB/	.	8BB/	8b/J	8dd\J	.	.	.	.	.	.	.	.	.	.	.	.
4C#/	6\	4C#/	8r	8r	.	.	.	.	.	.	.	.	.	.	.	.
!	!	!	!	!LO:TX:t=P:problem=mixed beam	!	!	!	!	!	!	!	!	!	!	!	!
.	.	.	8a#X/L	8cc#\L	.	.	.	.	.	.	.	.	.	.	.	.
8r	.	8r	8f#/	8f#/	.	.	.	.	.	.	.	.	.	.	.	.
8F#\	7 2	8F#\	8a#/J	8cc#\J	.	.	.	.	.	.	.	.	.	.	.	.
!	!	!	!LO:LB:g=original	!	!	!	!	!	!	!	!	!	!	!	!	!
=29	=29	=29	=29	=29	=29	=29	=29	=29	=29	=29	=29	=29	=29	=29	=29	=29
!	!	!	!	!	!	!	!	!	!	!	!	!LO:TX:t=P:problem=pojedyncza kreska taktowa	!	!	!	!
4BB/	.	4BB/	4b/	8b\L	.	1r	.	.	.	.	.	1r	.	1ryy	1r	1r
.	.	.	.	8ff#\J	.	.	.	.	.	.	.	.	.	.	.	.
!	!	!	!	!LO:TX:t=P:problem=mixed beam	!	!	!	!	!	!	!	!	!	!	!	!
8r	.	8r	4a#X/	8f#/L	.	.	.	.	.	.	.	.	.	.	.	.
8F#\	7 2	8F#\	.	8cc#\J	.	.	.	.	.	.	.	.	.	.	.	.
4BB/	.	4BB/	4b/	4b/	.	.	.	.	.	.	.	.	.	.	.	.
4r	.	4r	4r	4r	.	.	.	.	.	.	.	.	.	.	.	.
!LO:LB:g=original	!	!	!	!	!	!	!	!	!	!	!	!	!	!	!	!
=30||	=30||	=30||	=30||	=30||	=30||	=30||	=30||	=30	=30	=30||	=30||	=30||	=30||	=30||	=30||	=30||
*M4/4	*	*	*M4/4	*M4/4	*	*M4/4	*	*	*	*M4/4	*	*M4/4	*	*	*M4/4	*
*met(c)	*	*	*met(c)	*met(c)	*	*met(c)	*	*	*	*met(c)	*	*met(c)	*	*	*met(c)	*
!LO:TX:a:i:t=Tutti.	!	!LO:TX:i:t=Tacet\nAgnus	!	!	!	!	!	!LO:TX:t=P:problem=pojedyncza kreska taktowa	!	!	!	!	!	!	!	!LO:TX:a:i:t=Tutti
!LO:TX:b:t=Agnus	!	!	!	!	!	!	!	!	!	!	!	!	!	!	!LO:TX:b:i:t=Agnus	!LO:TX:b:i:t=Agnus
4.D\	.	1ryy	4.ff#\	4.aa\	.	4.D\	A-	4.A\	A-	4.f#\	A-	4.dd\	A-	1ryy	4.ff#\	4.aa\
!	!	!	!	!	!	!	!	!	!	!	!	!	!	!	!LO:TX:a:i:t=Tutti	!
8D\	.	.	8ee\	8gg\	.	8D\	-gnus	8G\	-gnus	8g\	-gnus	8cc#\	-gnus	.	8ee\	8gg\
4F#\	.	.	4dd\	4ff#\	.	4F#\	De-	4A\	De-	4f#\	De-	4dd\	De-	.	4dd\	4ff#\
8D\L	.	.	8dd\L	8ff#\L	.	8D\	-i	8F#/	-i	8f#\	-i	8dd\	-i	.	4dd\	4dd\
8F#\J	.	.	8dd\J	8dd\J	.	8F#\	qui	8A/	qui	8f#\	qui	8dd\	qui	.	.	.
=31	=31	=31	=31	=31	=31	=31	=31	=31	=31	=31	=31	=31	=31	=31	=31	=31
4G\	.	1ryy	4dd\	8b\L	.	4G\	tol-	4G/	tol-	4d\	tol-	4b\	tol-	1ryy	4ee\	4dd\
.	.	.	.	8gg\	.	.	.	.	.	.	.	.	.	.	.	.
4F#\	.	.	8dd\L	8aa\	.	8F#\	-lis	8A/	-lis	8f#\	-lis	8dd\	-lis	.	4ff#\	8ff#\L
.	.	.	16ff#\L	8dd\J	.	8F#\	pec-	8A/	pec-	8f#\	pec-	8dd\	pec-	.	.	8aa\J
.	.	.	16ee\JJ	.	.	.	.	.	.	.	.	.	.	.	.	.
4E\	.	.	4.ee\	4.gg\	.	4E\	-ca-	4.B\	-ca-	4.g\	-ca-	4dd\	-ca-	.	4.ee\	4.gg\
4AA/	.	.	.	.	.	4AA/	-ta	.	.	.	.	4cc#\	-ta	.	.	.
.	.	.	8ee\	8gg\	.	.	.	8c#\	-ta	8g\	-ta	.	.	.	8ee\	8gg\
!	!	!	!	!	!	!	!	!LO:LB:g=original	!	!	!	!	!	!	!LO:LB:g=original	!LO:LB:g=original
=32	=32	=32	=32	=32	=32	=32	=32	=32	=32	=32	=32	=32	=32	=32	=32	=32
4D\	.	1ryy	4a/	4ff#\	.	4D\	mun-	4d\	mun-	4f#\	mun-	4dd\	mun-	1ryy	4dd\	4ff#\
8D\L	.	.	8ff#\L	8aa\L	.	8D\	-di	8d\	-di	8f#\	-di	8dd\	-di	.	8dd\L	8ff#\L
!	!	!	!	!	!	!	!	!	!	!LO:LB:g=original	!	!	!	!	!	!
8E\J	.	.	8ee\J	8gg\J	.	8E\	pec-	16c#\LL	.	8g\	pec-	8dd\	pec-	.	8dd\J	8ff#\J
.	.	.	.	.	.	.	.	16B\JJ	.	.	.	.	.	.	.	.
4F#\	.	.	4.dd\	8ff#\L	.	4F#\	-ca-	4A\	mun-	4.a\	-ca-	4.dd\	-ca-	.	8dd\L	4ff#\
.	.	.	.	8dd\J	.	.	.	.	.	.	.	.	.	.	8dd\J	.
4G\	.	.	.	8dd\L	.	4G\	-ta	4B\	-di	.	.	.	.	.	4dd\	8ff#\L
.	.	.	16ee\LL	16gg\L	.	.	.	.	.	16g\LL	-ta	16ee\LL	-ta	.	.	8ff#\J
.	.	.	16dd\JJ	16ff#\JJ	.	.	.	.	.	16f#\JJ	.	16dd\JJ	.	.	.	.
=33	=33	=33	=33	=33	=33	=33	=33	=33	=33	=33	=33	=33	=33	=33	=33	=33
*	*	*	*	*	*	*	*	*	*ij	*	*	*	*	*	*	*
8A\L	.	1ryy	8cc#\L	8ee\L	.	8A\	mun-	8A\	mun-	8e\	mun-	8cc#\	mun-	1ryy	8a/L	8ee\L
8A\J	.	.	8cc#\J	8ee\J	.	8A\	-di	8A\	-di	8e\	-di	8cc#\	-di	.	8a/J	8ee\J
*	*	*	*	*	*	*	*	*	*Xij	*	*	*	*	*	*	*
4r	.	.	8r	8r	.	4r	.	4r	.	4r	.	8r	.	.	4r	4r
!	!	!	!	!	!LO:DY:b:t=piano.	!	!	!	!	!	!	!	!	!	!	!
.	.	.	8a/	8a/	p	.	.	.	.	.	.	8a\	pec-	.	.	.
2r	.	.	8f#/L	8dd\L	.	2r	.	2r	.	2r	.	8dd\	-ca-	.	2r	2r
.	.	.	8e/	8cc#\	.	.	.	.	.	.	.	16cc#\	-ta	.	.	.
.	.	.	.	.	.	.	.	.	.	.	.	16cc#\	pec-	.	.	.
.	.	.	8f#/	8dd\	.	.	.	.	.	.	.	8dd\	-a-	.	.	.
.	.	.	8g/J	8ee\J	.	.	.	.	.	.	.	8ee\	-ta	.	.	.
!	!	!	!	!LO:LB:g=original	!	!	!	!	!	!	!	!	!	!	!	!
=34	=34	=34	=34	=34	=34	=34	=34	=34	=34	=34	=34	=34	=34	=34	=34	=34
00r	.	1ryy	(16dd\LL	8ff#\L	.	00r	.	00r	.	00r	.	8ff#\	mun-	1ryy	00r	00r
.	.	.	16cc#\J)	.	.	.	.	.	.	.	.	.	.	.	.	.
.	.	.	8cc#\J	8ee\J	.	.	.	.	.	.	.	8ee\	-di	.	.	.
.	.	.	8r	8r	.	.	.	.	.	.	.	4r	.	.	.	.
.	.	.	8A/	8A/	.	.	.	.	.	.	.	.	.	.	.	.
.	.	.	4A/	8d/L	.	.	.	.	.	.	.	2r	.	.	.	.
.	.	.	.	8c#/	.	.	.	.	.	.	.	.	.	.	.	.
.	.	.	8B/L	8d/	.	.	.	.	.	.	.	.	.	.	.	.
.	.	.	8c#/J	8e/J	.	.	.	.	.	.	.	.	.	.	.	.
!	!	!	!	!	!	!	!	!	!	!	!	!LO:LB:g=original	!	!	!	!
=35	=35	=35	=35	=35	=35	=35	=35	=35	=35	=35	=35	=35	=35	=35	=35	=35
.	.	1ryy	8d/L	8f#/L	.	.	.	.	.	.	.	4r	.	1ryy	.	.
.	.	.	8c#/J	8e/J	.	.	.	.	.	.	.	.	.	.	.	.
.	.	.	8r	8r	.	.	.	.	.	.	.	8r	.	.	.	.
.	.	.	8dd\	8ff#\L	.	.	.	.	.	.	.	8ff#\	qui	.	.	.
.	.	.	8ee\L	8gg\	.	.	.	.	.	.	.	8gg\	tol-	.	.	.
.	.	.	8dd\J	8ff#\J	.	.	.	.	.	.	.	16ff#\	-lis	.	.	.
.	.	.	.	.	.	.	.	.	.	.	.	16ff#\	pec-	.	.	.
.	.	.	16ee\LL	16gg\LL	.	.	.	.	.	.	.	16gg\LL	-ca-	.	.	.
.	.	.	16dd\	16ff#\	.	.	.	.	.	.	.	16ff#\JJ	.	.	.	.
.	.	.	16cc#\	16ee\	.	.	.	.	.	.	.	16ee\LL	-ta	.	.	.
.	.	.	16b\JJ	16dd\JJ	.	.	.	.	.	.	.	16dd\JJ	.	.	.	.
=36	=36	=36	=36	=36	=36	=36	=36	=36	=36	=36	=36	=36	=36	=36	=36	=36
.	.	1ryy	8cc#\L	8ee\L	.	.	.	.	.	.	.	8cc#\	mun-	1ryy	.	.
.	.	.	8cc#\J	8a\J	.	.	.	.	.	.	.	8a\	-di	.	.	.
.	.	.	8r	8r	.	.	.	.	.	.	.	4r	.	.	.	.
.	.	.	8d/L	8f#/L	.	.	.	.	.	.	.	.	.	.	.	.
.	.	.	8e/	8g/	.	.	.	.	.	.	.	2r	.	.	.	.
.	.	.	8d/J	8f#/J	.	.	.	.	.	.	.	.	.	.	.	.
!	!	!	!LO:LB:g=original	!	!	!	!	!	!	!	!	!	!	!	!	!
.	.	.	16e/LL	16g/LL	.	.	.	.	.	.	.	.	.	.	.	.
.	.	.	16d/	16f#/	.	.	.	.	.	.	.	.	.	.	.	.
.	.	.	16c#/	16e/	.	.	.	.	.	.	.	.	.	.	.	.
.	.	.	16B/JJ	16d/JJ	.	.	.	.	.	.	.	.	.	.	.	.
=37	=37	=37	=37	=37	=37	=37	=37	=37	=37	=37	=37	=37	=37	=37	=37	=37
.	.	1ryy	8c#/L	8e/L	.	.	.	.	.	.	.	4r	.	1ryy	.	.
.	.	.	8c#/J	8A/J	.	.	.	.	.	.	.	.	.	.	.	.
.	.	.	8r	8r	.	.	.	.	.	.	.	8r	.	.	.	.
*	*	*	*	*	*	*	*	*	*	*	*	*	*ij	*	*	*
.	.	.	16cc#\LL	16a/LL	.	.	.	.	.	.	.	16a\LL	qui	.	.	.
.	.	.	16b\JJ	16b/JJ	.	.	.	.	.	.	.	16b\JJ	.	.	.	.
.	.	.	8a\L	8cc#\L	.	.	.	.	.	.	.	8cc#\	tol-	.	.	.
.	.	.	8b\	8dd\	.	.	.	.	.	.	.	16dd\	-lis	.	.	.
.	.	.	.	.	.	.	.	.	.	.	.	16dd\	pec-	.	.	.
.	.	.	8cc#\	8ee\	.	.	.	.	.	.	.	8ee\	-ca-	.	.	.
.	.	.	8dd\J	8ff#\J	.	.	.	.	.	.	.	8ff#\	-ta	.	.	.
=38	=38	=38	=38	=38	=38	=38	=38	=38	=38	=38	=38	=38	=38	=38	=38	=38
!	!	!	!LO:TX:t=P:problem=mixed beam	!LO:TX:t=P:problem=mixed beam	!	!	!	!	!	!	!	!	!	!	!	!
0r	.	1ryy	8ee\L	16gg\LL	.	0r	.	0r	.	0r	.	8gg\	mun-	1ryy	0r	0r
.	.	.	.	16a/J	.	.	.	.	.	.	.	.	.	.	.	.
.	.	.	8a/J	8a/J	.	.	.	.	.	.	.	8g\	-di	.	.	.
*	*	*	*	*	*	*	*	*	*	*	*	*	*Xij	*	*	*
.	.	.	8r	8r	.	.	.	.	.	.	.	4r	.	.	.	.
.	.	.	16c#/LL	16A/LL	.	.	.	.	.	.	.	.	.	.	.	.
.	.	.	16B/JJ	16B/JJ	.	.	.	.	.	.	.	.	.	.	.	.
.	.	.	8A/L	8c#/L	.	.	.	.	.	.	.	2r	.	.	.	.
.	.	.	8B/	8d/	.	.	.	.	.	.	.	.	.	.	.	.
.	.	.	8c#/	8e/	.	.	.	.	.	.	.	.	.	.	.	.
.	.	.	8d/J	8f#/J	.	.	.	.	.	.	.	.	.	.	.	.
=39	=39	=39	=39	=39	=39	=39	=39	=39	=39	=39	=39	=39	=39	=39	=39	=39
.	.	1ryy	8e/L	8g/L	.	.	.	.	.	.	.	2r	.	1ryy	.	.
.	.	.	8A/J	8A/J	.	.	.	.	.	.	.	.	.	.	.	.
.	.	.	4r	4r	.	.	.	.	.	.	.	.	.	.	.	.
.	.	.	8d/L	8f#/L	.	.	.	.	.	.	.	4.dd\	Do-	.	.	.
.	.	.	8e/	8g/	.	.	.	.	.	.	.	.	.	.	.	.
.	.	.	8f#/	8a/	.	.	.	.	.	.	.	.	.	.	.	.
.	.	.	8d/J	8f#/J	.	.	.	.	.	.	.	8dd\	-na	.	.	.
=40	=40	=40	=40	=40	=40	=40	=40	=40	=40	=40	=40	=40	=40	=40	=40	=40
1r	.	1ryy	8g/L	8b/L	.	1r	.	1r	.	1r	.	4dd\	no-	1ryy	1r	1r
.	.	.	8f#/	8a/	.	.	.	.	.	.	.	.	.	.	.	.
.	.	.	8g/	8b/	.	.	.	.	.	.	.	4dd\	-bis	.	.	.
.	.	.	8e/J	8g/J	.	.	.	.	.	.	.	.	.	.	.	.
!	!	!	!	!	!	!	!	!	!	!	!	!LO:LB:g=original	!	!	!	!
.	.	.	8d/L	8f#/L	.	.	.	.	.	.	.	4dd\	pa-	.	.	.
.	.	.	8e/	8g/	.	.	.	.	.	.	.	.	.	.	.	.
.	.	.	8f#/	8a/	.	.	.	.	.	.	.	4dd\	-cem	.	.	.
.	.	.	8d/J	8f#/J	.	.	.	.	.	.	.	.	.	.	.	.
!	!	!	!	!LO:LB:g=original	!	!	!	!	!	!	!	!	!	!	!	!
=41	=41	=41	=41	=41	=41	=41	=41	=41	=41	=41	=41	=41	=41	=41	=41	=41
2r	.	1ryy	8g/L	8b/L	.	2r	.	2r	.	2r	.	4dd\	pa-	1ryy	2r	2r
.	.	.	8e/	8g/	.	.	.	.	.	.	.	.	.	.	.	.
.	.	.	8a/	8a/	.	.	.	.	.	.	.	4cc#\	-cem	.	.	.
.	.	.	8A/J	8A/J	.	.	.	.	.	.	.	.	.	.	.	.
!	!	!	!LO:TX:t=P:problem=mixed beam	!LO:TX:t=P:problem=mixed beam	!	!	!	!	!	!	!	!	!	!	!	!
8D\L	.	.	8d/L	8d/L	.	8D\L	Do-	8A/L	.	8f#\L	do-	4dd\	Do-	.	8ff#\L	8aa\L
8E\	.	.	16ff#\L	16aa\L	.	8E\J	.	8G/J	Do-	8g\J	.	.	.	.	8ee\	8gg\
.	.	.	16ee\JJ	16gg\JJ	.	.	.	.	.	.	.	.	.	.	.	.
8F#\	.	.	8dd\L	8ff#\L	.	8F#\L	-na	8F#/L	-na	8a\L	-na	8dd\	-na	.	8dd\	8ff#\
8G\J	.	.	8ff#\J	8aa\J	.	8D\J	.	8A/J	.	8f#\J	.	8dd\	no-	.	8ff#\J	8bb\J
=42	=42	=42	=42	=42	=42	=42	=42	=42	=42	=42	=42	=42	=42	=42	=42	=42
!LO:TX:t=P:problem=mixed beam	!	!	!	!	!	!	!	!	!	!	!	!	!	!	!	!
8A\L	.	1ryy	8b\L	8dd\L	.	8G\L	no-	16B\LL	no-	4d\	no-	4dd\	-bis	1ryy	4dd\	8ff#\L
.	.	.	.	.	.	.	.	16A\JJ	.	.	.	.	.	.	.	.
8AA/	.	.	8b\	8dd\	.	8F#\J	.	16B\LL	-bis	.	.	.	.	.	.	8ff#\
.	.	.	.	.	.	.	.	16A\JJ	.	.	.	.	.	.	.	.
*	*	*	*	*	*	*	*	*	*	*	*	*	*ij	*	*	*
8C#/	.	.	8b\	8dd\	.	8G\L	-bis	8B\L	.	4d\	-bis	4dd\	no-	.	4dd\	8ff#\
8AA/J	.	.	8b\J	8dd\J	.	8E\J	.	8G\J	pa-	.	.	.	.	.	.	8ff#\J
!	!	!	!	!	!	!LO:LB:g=original	!	!	!	!	!	!	!	!	!	!
8D\L	.	.	8ff#\L	8aa\L	.	8D\L	Pa-	8A\L	-cem	4e\	no-	4dd\	-bis	.	8dd\L	8ff#\L
*	*	*	*	*	*	*	*	*	*	*	*	*	*Xij	*	*	*
8E\	.	.	8ee\	8gg\J	.	8E\J	.	8G\J	.	.	.	.	.	.	8dd\	8gg\
!	!	!	!	!	!	!	!	!LO:LB:g=original	!	!	!	!	!	!	!	!
8F#\	.	.	8dd\	8ff#\L	.	8F#\	-cem	8F#/	pa-	8f#\	-bis	8dd\	pa-	.	8dd\	8ff#\
8D\J	.	.	8ff#\J	16bb\L	.	8D/	.	8A/	-cem	8f#\	da	8dd\	-cem	.	8dd\J	8gg\J
.	.	.	.	16aa\JJ	.	.	.	.	.	.	.	.	.	.	.	.
=43	=43	=43	=43	=43	=43	=43	=43	=43	=43	=43	=43	=43	=43	=43	=43	=43
!LO:TX:t=P:problem=mixed beam	!	!LO:TX:t=Dona Nobis \nUt Kirye Allegro	!	!	!	!	!	!	!	!	!	!	!	!	!	!
8G\L	.	1ryy	8ee\L	8gg\L	.	8G\L	da	4B\	Pa-	2e\	pa-	4dd\	pa-	1ryy	4.a/	4.ee\
8E\	.	.	16ee\L	16gg\L	.	8E\J	.	.	.	.	.	.	.	.	.	.
.	.	.	16dd\JJ	16ff#\JJ	.	.	.	.	.	.	.	.	.	.	.	.
!	!	!	!	!	!	!LO:TX:t=P:problem=mixed beam	!	!	!	!	!	!	!	!	!	!
8A\	.	.	8cc#\L	8ee\L	.	8A\L	Pa-	4A\	.	.	.	4cc#\	.	.	.	.
8AA/J	.	.	8ee\J	8gg\J	.	8AA/J	.	.	.	.	.	.	.	.	8a/	8ee\
4D/	.	.	4dd\	4ff#\	.	4D/	-cem	4A\	-cem	4f#\	-cem	4dd\	-cem	.	4dd\	4ff#\
!LO:TX:b:i:t=Dona nobis ut Kyrie	!	!	!LO:TX:b:i:t=Dona nobis ut Kyrie Allegro.	!LO:TX:b:i:t=Dona nobis ut Kyrie Allegro	!	!LO:TX:b:i:t=Dona nobis ut Kyrie Allegro	!	!LO:TX:b:i:t=Dona nobis ut Kyrie Allegro Dacapo \n Ad M. D Gloriam	!	!LO:TX:b:i:t=Donabis Pacem ut Kyrie Alegro	!	!LO:TX:b:i:t=Dona Nobis ut Kyrie Allegro.	!	!	!LO:TX:b:i:t=Dona nobis ut Kyrie Allegro	!LO:TX:b:i:t=Dona nobis ut \nKyrie Allegro
4r	.	.	4r;	4r	.	4r	.	4r	.	4r;	.	4r	.	.	4r	4r;
==	==	==	==	==	==	==	==	==	==	==	==	==	==	==	==	==
*-	*-	*-	*-	*-	*-	*-	*-	*-	*-	*-	*-	*-	*-	*-	*-	*-
!!!system-decoration: [(s1,s2)]s3[(s4,s5,s6,s7)][(s8,s9,s10)]s11
!!!ENC: Mateusz Solarz
!!!END: 2020-12-11
!!!ENC: Leszek Kubiak
!!!END: 2022-03-22
!!!YEC: Copyright 2022 Narodowy Instytut Fryderyka Chopina (https://polishscores.org)
!!!YEM: License CC-BY-4.0 (https://creativecommons.org/licenses/by/4.0)
